usr/share/icons/biglinux-icons-material-dark/symbolic/status/blueberry-tray-disabled-symbolic.svg

<svg width="16" height="16" version="1.1" xmlns="http://www.w3.org/2000/svg">
 <path d="m7.4707 0c-0.050014 0.0029066-0.099928 0.01476-0.14844 0.033203-0.19404 0.073773-0.32227 0.25921-0.32227 0.4668v5.0547l0.47656 0.375 0.52344 0.41016v-4.5254l2.7734 3.1211-2.2813 1.791 0.80859 0.63672 2.5078-1.9707c0.10841-0.08518 0.17718-0.21034 0.18945-0.34766 0.01227-0.13733-0.03341-0.2739-0.125-0.37695l-4-4.5c-0.10344-0.11637-0.2523-0.17669-0.40234-0.16797zm-2.9336 5.002c-0.16009-0.011518-0.32306 0.053741-0.42969 0.18945-0.17061 0.21714-0.13315 0.53056 0.083984 0.70117l2.6816 2.1074-2.6816 2.1074c-0.21714 0.1706-0.25459 0.48407-0.083984 0.70117 0.17061 0.2172 0.48404 0.25458 0.70117 0.083984l2.1914-1.7207v6.3281c0 0.2076 0.12823 0.393 0.32227 0.4668s0.41286 0.020434 0.55078-0.13477l4-4.5c0.09159-0.103 0.13727-0.23955 0.125-0.37695-0.01227-0.1373-0.081043-0.26256-0.18945-0.34766l-2.3223-1.8262-0.99609-0.78125-0.26367-0.20898-1.2266-0.96289-0.14258-0.11133c-0.0033091-0.0026-0.0065401-0.0051461-0.0097657-0.0078125l-1.25-0.98242-0.78906-0.61914c-0.081426-0.063975-0.17543-0.098558-0.27148-0.10547zm3.4629 3.8848 2.7734 2.1777-2.7734 3.1211v-5.2988z" fill="#dedede"/>
 <rect transform="rotate(38.118)" x="3.3861" y="1.0519" width="16" height="1" rx=".5" ry=".5" fill="#dedede" style="paint-order:stroke fill markers"/>
</svg>

<svg xmlns="http://www.w3.org/2000/svg" width="16" height="16">
<path fill="#363636" d="M7.47 0A.5.5 0 0 0 7 .5v5.055l.477.375.523.41V1.814l2.773 3.122-2.28 1.79.808.637 2.507-1.97a.5.5 0 0 0 .065-.725l-4-4.5A.5.5 0 0 0 7.47 0M4.538 5.002a.5.5 0 0 0-.346.89L6.873 8l-2.682 2.107a.499.499 0 1 0 .618.786L7 9.172V15.5a.5.5 0 0 0 .873.332l4-4.5a.5.5 0 0 0-.064-.725L9.486 8.781 8.49 8l-.263-.209L7 6.828l-.143-.111-.01-.008-1.25-.982-.788-.62a.5.5 0 0 0-.272-.105M8 8.887l2.773 2.177L8 14.186z"/>
<rect width="16" height="1" x="3.386" y="1.052" fill="#363636" rx=".5" ry=".5" style="paint-order:stroke fill markers" transform="rotate(38.118)"/>
</svg>
